icons/file-removed-24.svg

<svg width="24" height="24" viewBox="0 0 24 24">
  <path
    d="M3 3C3 1.89543 3.89543 1 5 1H14.9822C15.5127 1 16.0214 1.21071 16.3964 1.58579L20.4142 5.60355C20.7893 5.97863 21 6.48733 21 7.01777V21C21 22.1046 20.1046 23 19 23H5C3.89543 23 3 22.1046 3 21V3ZM5 2.5C4.72386 2.5 4.5 2.72386 4.5 3V21C4.5 21.2761 4.72386 21.5 5 21.5H19C19.2761 21.5 19.5 21.2761 19.5 21V7.01777C19.5 6.88516 19.4473 6.75798 19.3536 6.66421L15.3358 2.64645C15.242 2.55268 15.1148 2.5 14.9822 2.5H5Z"
  />
  <path
    d="M8 12C8 11.5858 8.35817 11.25 8.8 11.25H15.2C15.6418 11.25 16 11.5858 16 12C16 12.4142 15.6418 12.75 15.2 12.75H8.8C8.35817 12.75 8 12.4142 8 12Z" />
</svg>

<svg xmlns="http://www.w3.org/2000/svg" width="24" height="24" viewBox="0 0 24 24"><path d="M3 3a2 2 0 0 1 2-2h9.982a2 2 0 0 1 1.414.586l4.018 4.018A2 2 0 0 1 21 7.018V21a2 2 0 0 1-2 2H5a2 2 0 0 1-2-2V3Zm2-.5a.5.5 0 0 0-.5.5v18a.5.5 0 0 0 .5.5h14a.5.5 0 0 0 .5-.5V7.018a.5.5 0 0 0-.146-.354l-4.018-4.018a.5.5 0 0 0-.354-.146H5Z"/><path d="M8 12c0-.414.358-.75.8-.75h6.4c.442 0 .8.336.8.75s-.358.75-.8.75H8.8c-.442 0-.8-.336-.8-.75Z"/></svg>
